T: Rocks Of Cashel, The
M: 2/4
L: 1/8
K: Dmaj
|: DF A2 | B/A/G/F/ A2 | DF A2 | B/A/G/F/ ED | DF A2 | B/A/G/F/ Ac | dB AF | GE EF :| |: DF d2 | d/c/B/A/ d2 | DF d2 | d/c/B/A/ df | DF d2 | d/c/B/A/ d2 | dB AF | GE EF :||: DF G/F/E/F/ | G/F/E/F/ G/F/E/F/ | DF G/F/G/F/ | GE EF | DF G/F/E/F/ | G/F/E/F/ G/F/E/F/ | dB AF | GE EF :|
